apps/site/public/icons/technologies/apollo.svg

<svg xmlns="http://www.w3.org/2000/svg" fill="none" viewBox="0 0 124 124" height="124" width="124">
    <path fill="white" d="M58.9234 0.0543266C58.6849 0.0651665 57.7852 0.141046 56.918 0.206086C46.078 1.00824 35.0863 5.01902 26.0783 11.4579C23.0973 13.5826 20.7451 15.5771 18.1218 18.2004C3.04344 33.2896 -3.16785 54.8828 1.54753 75.8581C3.47704 84.465 7.59622 93.1261 13.0596 100.085C21.634 111.023 33.3845 118.73 46.5658 122.069C51.9316 123.435 56.3868 123.987 62.0128 123.987C67.5628 123.987 71.6495 123.489 76.9394 122.199C84.5382 120.334 91.2156 117.267 97.893 112.595C104.289 108.107 110.24 101.82 114.511 95.0448C120.017 86.2861 123.15 76.6169 123.92 66.0046C124.082 63.7715 123.985 58.2432 123.746 55.9668C123.269 51.4465 122.055 45.4845 121.351 44.2379C121.069 43.7502 120.277 43.1214 119.692 42.9155C119.486 42.8504 119.031 42.7962 118.662 42.7962C117.036 42.7962 115.67 44.1512 115.67 45.7447C115.67 46.1241 115.844 47.0347 116.093 48.0211C118.24 56.3679 118.413 65.5384 116.581 73.9069C114.24 84.6276 109.015 94.08 101.134 101.831C97.4594 105.44 93.9147 108.107 89.3294 110.73C78.6304 116.855 65.3298 119.174 52.853 117.093C43.3789 115.521 35.1514 111.879 27.3358 105.798C23.661 102.936 19.1841 98.2209 16.4091 94.2751C11.6178 87.4677 8.60434 80.2916 7.04338 71.9557C6.25207 67.7064 5.98107 62.0697 6.34963 57.4844C6.9133 50.5251 8.65854 44.0645 11.6178 37.9399C12.9837 35.089 13.8292 33.604 15.466 31.1433C18.8047 26.0919 23.2274 21.3657 28.1162 17.615C33.8506 13.2032 40.6581 9.85364 47.5414 8.05421C51.2595 7.07861 54.2297 6.59081 58.002 6.31982C71.6495 5.34422 84.9176 9.26828 95.725 17.4958C96.5271 18.1028 97.3727 18.7641 97.6003 18.97L98.0122 19.3278L97.8496 19.783C97.0149 22.1245 97.6328 25.0404 99.3889 27.0783C100.289 28.1189 101.915 29.0945 103.291 29.4197C104.234 29.6474 105.871 29.6474 106.825 29.4197C109.242 28.8452 111.497 26.7748 112.213 24.4767C113.015 21.9077 112.549 19.3711 110.901 17.3115C109.08 15.0351 105.947 14.0162 103.053 14.775L102.424 14.9376L101.535 14.2005C97.9255 11.1761 93.557 8.37941 88.9609 6.15722C81.503 2.54751 74.0126 0.607164 65.4815 0.0868463C63.8447 -0.0107132 59.9748 -0.032393 58.9234 0.0543266V0.0543266Z"></path>
    <path fill="white" d="M52.5003 35.718C51.3513 38.6882 48.8581 45.1921 46.9395 50.1677C45.0208 55.1432 41.0859 65.3653 38.1916 72.8774C35.3082 80.3894 32.9126 86.5682 32.8909 86.6116C32.8584 86.6658 35.9044 86.6983 39.6442 86.6983H46.4625L46.8636 85.5818C47.0912 84.9747 47.8934 82.8284 48.6413 80.8122L50.0072 77.1591H60.2401C68.3917 77.1591 70.473 77.1266 70.4405 77.0182C70.3321 76.7255 68.6627 71.956 67.7738 69.4086L66.8199 66.6986L60.0449 66.6444L53.2808 66.5902L57.6818 54.4603C60.3268 47.1758 62.1154 42.4063 62.1479 42.5147C62.1913 42.6122 63.9473 47.6094 66.0611 53.6148C68.1749 59.6201 71.6654 69.5061 73.8117 75.5873L77.7032 86.6441L84.489 86.6766C88.218 86.6874 91.2748 86.6766 91.2748 86.6549C91.2748 86.6332 90.3968 84.3243 89.3128 81.5385C88.2288 78.7418 85.9091 72.7256 84.153 68.162C82.3969 63.5984 80.424 58.4819 79.7628 56.78C79.1124 55.0782 77.9742 52.1297 77.2371 50.2219C76.5 48.314 74.5813 43.3168 72.9553 39.1109C71.3293 34.905 69.9093 31.2086 69.7901 30.8942L69.5841 30.3306H54.5708L52.5003 35.718Z"></path>
  </svg>

<svg xmlns="http://www.w3.org/2000/svg" width="124" height="124" fill="none" viewBox="0 0 124 124"><path fill="#fff" d="M58.923.054c-.238.011-1.138.087-2.005.152-10.84.802-21.832 4.813-30.84 11.252-2.98 2.125-5.333 4.12-7.956 6.742C3.043 33.29-3.168 54.883 1.548 75.858c1.929 8.607 6.048 17.268 11.512 24.227 8.574 10.938 20.325 18.645 33.506 21.984 5.366 1.366 9.82 1.918 15.447 1.918 5.55 0 9.637-.498 14.926-1.788 7.6-1.865 14.277-4.932 20.954-9.604 6.396-4.488 12.347-10.775 16.618-17.55 5.506-8.759 8.639-18.428 9.409-29.04.162-2.233.065-7.762-.174-10.038-.477-4.52-1.691-10.483-2.395-11.73-.282-.487-1.074-1.116-1.659-1.322-.206-.065-.661-.119-1.03-.119-1.626 0-2.992 1.355-2.992 2.949 0 .38.174 1.29.423 2.276 2.147 8.347 2.32 17.517.488 25.886-2.341 10.72-7.566 20.173-15.447 27.924-3.675 3.609-7.22 6.276-11.805 8.899-10.699 6.125-24 8.444-36.476 6.363-9.474-1.572-17.702-5.214-25.517-11.295-3.675-2.862-8.152-7.577-10.927-11.523-4.791-6.807-7.805-13.983-9.366-22.32-.79-4.249-1.062-9.885-.693-14.47.563-6.96 2.309-13.42 5.268-19.545 1.366-2.851 2.211-4.336 3.848-6.797 3.339-5.051 7.761-9.777 12.65-13.528 5.735-4.412 12.542-7.761 19.425-9.56C51.26 7.078 54.23 6.59 58.002 6.32c13.648-.976 26.916 2.948 37.723 11.176.802.607 1.648 1.268 1.875 1.474l.412.358-.162.455c-.835 2.342-.217 5.257 1.539 7.295.9 1.04 2.526 2.017 3.902 2.342.943.227 2.58.227 3.534 0 2.417-.575 4.672-2.645 5.388-4.943.802-2.57.336-5.106-1.312-7.166-1.821-2.276-4.954-3.295-7.848-2.536l-.629.163-.889-.738c-3.61-3.024-7.978-5.82-12.574-8.043-7.458-3.61-14.948-5.55-23.48-6.07-1.636-.098-5.506-.12-6.558-.033"/><path fill="#fff" d="M52.5 35.718c-1.149 2.97-3.642 9.474-5.56 14.45-1.92 4.975-5.854 15.197-8.748 22.71a3105 3105 0 0 1-5.301 13.734c-.033.054 3.013.086 6.753.086h6.819l.4-1.116c.228-.607 1.03-2.754 1.778-4.77l1.366-3.653H60.24c8.152 0 10.233-.032 10.2-.14-.108-.294-1.777-5.063-2.666-7.61l-.954-2.71-6.775-.055-6.764-.054 4.4-12.13c2.646-7.284 4.434-12.054 4.467-11.945.043.097 1.8 5.094 3.913 11.1 2.114 6.005 5.604 15.891 7.75 21.972l3.892 11.057 6.786.033c3.729.01 6.786 0 6.786-.022s-.878-2.33-1.962-5.117a7689 7689 0 0 1-5.16-13.376c-1.756-4.564-3.729-9.68-4.39-11.382-.65-1.702-1.789-4.65-2.526-6.558s-2.656-6.905-4.282-11.111a3129 3129 0 0 1-3.165-8.217l-.206-.563H54.571z"/></svg>
